X:88
T:Gan ainm
R:Reel
D:Milltown Malbay Concertina Recital
Z:Adrian Scahill
M:4/4
L:1/8
S:Robert Eckert <Robert@WHISTLEPLAYERS.ZZN.COM> irtrad-l 2001-6-18
K:D
F2AF E2DE|FAAF Adfd|B3d AFDE|FEED E2DE|\
FdAF E2DE|FAAF Adfd|BdGB AFDF|EA,CE D3E:||\
f2af efdB|AFFE FAdA|BdGB ABde|(3fed Ad Beeg|\
f2af efdB|AFFE Fdcd|BdGB AFDF|EA,CE D3e:||
